X:1
T:Lord, I Am Fondly, Earnestly Longing
T:Lord, I Am Fondly, Earnestly Longing
T:Charles Edward Pollock
T:Elisha Albright Hoffman, 1902
T:Public Domain Courtesy of the Cyber Hymnal™
T:Public Domain Courtesy of the Cyber Hymnal™
C:Charles Edward Pollock
Z:Public Domain
Z:Courtesy of the Cyber Hymnal™
%%score ( 1 2 ) ( 3 4 )
L:1/8
M:9/8
K:G
V:1 treble 
V:2 treble 
V:3 bass 
V:4 bass 
V:1
 D[DG][DA] | [GB]3 [DG]3 [EA][EG][CE] | [B,D]3 [B,G]3 [DG][DF][DG] [FA]3 [FA]3 [FA][EG][FA] | %3
w: 1.~Lord, I am|fond- ly, ear- nest- ly|long- ing In- to Thy ho- ly like- ness to|
w: 2.~Dead to the|world would I be, O|Fa- ther! Dead un- to sin, a- live un- to|
w: 3.~I would be|Thine, and serve Thee for-|ev- er, Filled with Thy Spir- it, lost in Thy|
 [GB]6 [GB][DA][DG] | [Gc]3 [GB]3 [GB][DA][DG] | [GB]3 [FA]3 [FA][FA][GB] | %6
w: grow; Thirst- ing for|more and deep- er com-|mun- ion, Yearn- ing Thy|
w: Thee; Cru- ci- fy|all the earth- ly with-|in me, Emp- tied of|
w: love; Come to my|heart, Lord, come with a-|noint- ing, Show- ers of|
 [FA]3 [EG]3 [DF][DF][^CE] | D6 ||"^Refrain" dBc d3 d3 [Ge][Gd][G^c] | [Gd]3 [GB]3 BAG | %10
w: love more ful- ly to|know.|O- pen the wells of grace and sal-|va- tion, Pour the rich|
w: sin and self may I|be.|||
w: grace send down from a-|bove.|||
 A3 A3 [FA]G[FA] x | [GB]6 dBc | d3 d3 [Ge][Gd][G^c] | [Gd]3 [GB]3 BAG | A3 A3 [DF][DE][DF] | %15
w: streams deep in- to my|heart; Cleanse and re-|fine my thought and af-|fec- tion, Seal me and|make me pure as Thou|
w: |||||
w: |||||
 [DG]6 |] %16
w: art.|
w: |
w: |
V:2
 D x2 | x9 | x18 | x9 | x9 | x9 | x9 | D6 || x3 (GGG) (G2 G) x3 | x9 | (FFF) (F2 F) G x3 | x9 | %12
 (GGG) (G2 G) x3 | x9 | (EEE) (E2 E) x3 | x6 |] %16
V:3
 [G,B,][G,B,][G,C] | [G,D]3 [G,B,]3 [C,C][C,C][C,G,] | %2
w: ~ ~ ~|~ ~ ~ ~ ~|
 [G,,G,]3 [G,,G,]3 [B,,G,][A,,C][G,,B,] [D,D]3 [D,D]3 [D,D][D,D][D,D] | [G,D]6 [G,D][G,C][G,B,] | %4
w: ~ ~ ~ ~ ~ ~ ~ ~ ~ ~|~ ~ ~ ~|
 [G,E]3 [G,D]3 [G,D][G,C][G,B,] | [D,D]3 [D,D]3 [D,D][D,D][D,D] | %6
w: ~ ~ ~ ~ ~|~ ~ ~ ~ ~|
 [D,D]3 [G,,B,]3 [A,,A,][A,,A,][A,,G,] | [D,F,]6 || B,G,A, B,3 B,3 [G,C][G,B,][G,^A,] | %9
w: ~ ~ ~ ~ ~|~|~ ~ ~ ~ Open the wells of|
 [G,B,]3 [G,D]3 DCB, | D3 D3 D,[CD][B,D][A,D] | [G,D]6 B,G,A, | B,3 B,3 [G,C][G,B,][G,^A,] | %13
w: grace and sal- va- tion,|~ ~ ~ Pour the rich|streams deep in- to|my heart; ~ ~ ~|
 [G,B,]3 [G,D]3 DCB, | C3 C3 [D,C][D,C][D,C] | [G,,G,B,]6 |] %16
w: Cleanse and re- fine my|thought and af- fec- tion,|~|
V:4
 x3 | x9 | x18 | x9 | x9 | x9 | x9 | x6 || x3 G,G,G, G,2 G, x3 | x9 | D,D,D, D,2 x5 | x9 | %12
 G,G,G, G,2 G, x3 | x9 | C,C,C, C,2 C, x3 | x6 |] %16

